Newaita-dark/apps/24/preferences-virtualization-container.svg

<svg height="24" viewBox="0 0 24 24" width="24" xmlns="http://www.w3.org/2000/svg" xmlns:xlink="http://www.w3.org/1999/xlink"><linearGradient id="a" gradientUnits="userSpaceOnUse" x1="11.90739" x2="11.90739" y1="21.02545225" y2="22.01773525002"><stop offset="0" stop-opacity=".27451"/><stop offset="1" stop-opacity="0"/></linearGradient><linearGradient id="b"><stop offset="0" stop-opacity=".313726"/><stop offset=".222222" stop-opacity=".27451"/><stop offset="1" stop-opacity="0"/></linearGradient><radialGradient id="c" cx="450.908936" cy="189.579361" gradientTransform="matrix(.00000013 -.0585994 -.105479 -.00000008 39.097986 47.696499)" gradientUnits="userSpaceOnUse" r="21.166656" xlink:href="#b"/><radialGradient id="d" cx="450.908936" cy="189.579361" gradientTransform="matrix(-.00000013 .0585994 .105479 .00000008 -15.28321 -5.645609)" gradientUnits="userSpaceOnUse" r="21.166656" xlink:href="#b"/><radialGradient id="e" cx="450.908936" cy="189.579361" gradientTransform="matrix(-.00000013 -.0585994 .105479 -.00000008 -15.28321 47.696499)" gradientUnits="userSpaceOnUse" r="21.166656" xlink:href="#b"/><radialGradient id="f" cx="450.908936" cy="189.579361" gradientTransform="matrix(.00000013 .0585994 -.105479 .00000008 39.097985 -5.64561)" gradientUnits="userSpaceOnUse" r="21.166656" xlink:href="#b"/><linearGradient id="g"><stop offset="0" stop-color="#757575"/><stop offset="1" stop-color="#9e9e9e"/></linearGradient><linearGradient id="h" gradientUnits="userSpaceOnUse" x1="7.93826174998" x2="7.93826174998" xlink:href="#g" y1="21.02545025" y2="2.17207850005"/><linearGradient id="i" gradientUnits="userSpaceOnUse" x1="8.56497045612" x2="8.56497045612" y1="19.53703225" y2="3.66049808776"><stop offset="0" stop-color="#bdbdbd"/><stop offset="1" stop-color="#9e9e9e"/></linearGradient><linearGradient id="j" gradientUnits="userSpaceOnUse" x1="12.155463" x2="12.155463" xlink:href="#g" y1="19.04089725" y2="1.17980775"/><linearGradient id="k" gradientUnits="userSpaceOnUse" x1="17.116874" x2="17.116874" xlink:href="#g" y1="19.04089725" y2="1.17980775"/><linearGradient id="l" gradientUnits="userSpaceOnUse" x1="7.690190625" x2="7.690190625" y1="19.04089725" y2="1.17980775"><stop offset="0" stop-color="#f44336"/><stop offset="1" stop-color="#ef5350"/></linearGradient><linearGradient id="m" gradientUnits="userSpaceOnUse" x1="14.63613" x2="14.63613" y1="19.04084414717" y2="1.17980357661"><stop offset="0" stop-color="#424242"/><stop offset="1" stop-color="#616161"/></linearGradient><path d="m4.464844 20.953125h14.882812v1.101563h-14.882812zm0 0" fill="url(#a)"/><path d="m19.347656 21.027344h1.988282v-.996094h-1.988282zm0 0" fill="url(#c)"/><path d="m4.464844 21.027344h-1.984375v.992187h1.984375zm0 0" fill="url(#d)"/><path d="m4.464844 21.027344h-1.984375v-.996094h1.984375zm0 0" fill="url(#e)"/><path d="m19.347656 21.027344h1.988282v.992187h-1.988282zm0 0" fill="url(#f)"/><path d="m3.472656 2.171875h16.867188c.550781 0 .996094.445313.996094.992187v16.867188c0 .550781-.445313.996094-.996094.996094h-16.867188c-.546875 0-.992187-.445313-.992187-.996094v-16.867188c0-.546874.445312-.992187.992187-.992187zm0 0" fill="url(#h)"/><path d="m3.472656 2.238281c-.550781 0-.992187.445313-.992187.992188v.125c0-.550781.441406-.992188.992187-.992188h16.867188c.550781 0 .996094.441407.996094.992188v-.125c0-.546875-.445313-.992188-.996094-.992188zm0 0" fill="#e6e6e6" fill-opacity=".392157"/><path d="m3.472656 21.027344c-.550781 0-.992187-.445313-.992187-.996094v-.121094c0 .546875.441406.992188.992187.992188h16.867188c.550781 0 .996094-.445313.996094-.992188v.121094c0 .550781-.445313.996094-.996094.996094zm0 0" fill-opacity=".196078"/><path d="m74.076259-168.671091h359.798975c11.748878 0 21.247971 9.499093 21.247971 21.164646v359.798974c0 11.748878-9.499093 21.247971-21.247971 21.247971h-359.798975c-11.665552 0-21.164645-9.499093-21.164645-21.247971v-359.798974c0-11.665553 9.499093-21.164646 21.164645-21.164646zm0 0" fill="none" stroke="#212121" stroke-linecap="round" stroke-width="3" transform="matrix(.0468795 0 0 .0468795 0 10.079087)"/><path d="m4.464844 3.660156h14.882812c.277344 0 .496094.222656.496094.496094v14.882812c0 .277344-.21875.496094-.496094.496094h-14.882812c-.273438 0-.496094-.21875-.496094-.496094v-14.882812c0-.273438.222656-.496094.496094-.496094zm0 0" fill="url(#i)"/><path d="m3.96875 19.039062v.25c0 .273438.222656.496094.496094.496094h14.882812c.277344 0 .496094-.222656.496094-.496094v-.25c0 .277344-.21875.496094-.496094.496094h-14.882812c-.273438 0-.496094-.21875-.496094-.496094zm0 0" fill="#fff" fill-opacity=".392157"/><path d="m3.96875 4.527344v-.371094c0-.273438.222656-.496094.496094-.496094h14.882812c.277344 0 .496094.222656.496094.496094v.371094c0-.273438-.21875-.496094-.496094-.496094h-14.882812c-.273438 0-.496094.222656-.496094.496094zm0 0" fill-opacity=".235294"/><path d="m95.240905-136.924123h317.469683c5.916102 0 10.582323 4.749547 10.582323 10.582323v317.469683c0 5.916102-4.666221 10.582323-10.582323 10.582323h-317.469683c-5.832776 0-10.582323-4.666221-10.582323-10.582323v-317.469683c0-5.832776 4.749547-10.582323 10.582323-10.582323zm0 0" fill="none" stroke="#212121" stroke-linecap="round" stroke-width="3" transform="matrix(.0468795 0 0 .0468795 0 10.079087)"/><path d="m9.179688 14.328125h.992187l.992187-2.480469.992188 2.480469h.992188l-1.984376-4.464844zm0 0" fill="url(#j)"/><path d="m14.140625 14.328125h.992187l.992188-2.480469.992188 2.480469h.992187l-1.984375-4.464844zm0 0" fill="url(#k)"/><path d="m4.714844 8.621094h.992187l1.984375 4.464844 1.984375-4.464844h.992188l-2.480469 5.707031h-.992188zm0 0" fill="url(#l)"/><path d="m10.667969 8.621094-2.480469 5.707031h.992188l1.984374-4.464844 1.984376 4.464844h.992187l1.984375-4.464844 1.984375 4.464844h.992187l-2.480468-5.707031h-.992188l-1.984375 4.566406-1.984375-4.566406zm0 0" fill="url(#m)"/><path d="m100.573729-31.100895h21.164646l42.329291 95.240905 42.329291-95.240905h21.164645l-52.911614 121.738375h-21.164645zm0 0" fill="none" stroke="#212121" stroke-width="3" transform="matrix(.0468795 0 0 .0468795 0 10.079087)"/><path d="m4.714844 8.648438.078125.183593h.914062l1.984375 4.464844 1.984375-4.464844h1.984375l1.984375 4.566407 1.984375-4.566407h.992188l2.398437 5.519531h.082031l-2.480468-5.703124h-.992188l-1.984375 4.5625-1.984375-4.5625h-1.984375l-1.984375 4.464843-1.984375-4.464843zm0 0" fill="#fff" fill-opacity=".392157"/><g fill="none" stroke="#212121" stroke-width="3" transform="matrix(.0468795 0 0 .0468795 0 10.079087)"><path d="m227.561602-31.100895-52.911614 121.738375h21.164646l42.329291-95.240905 42.329291 95.240905h21.164646l42.329291-95.240905 42.329291 95.240905h21.164645l-52.911613-121.738375h-21.164646l-42.329291 97.407365-42.329291-97.407365zm0 0"/><path d="m195.814634 90.63748h21.164646l21.164645-52.911614 21.164646 52.911614h21.164645l-42.329291-95.240905zm0 0"/><path d="m301.637862 90.63748h21.164645l21.164646-52.911614 21.164645 52.911614h21.164646l-42.329291-95.240905zm0 0"/></g><path d="m4.714844 8.871094 2.480468 5.703125h2.976563l.992187-2.480469.992188 2.480469h2.976562l.992188-2.480469.992188 2.480469h1.984374l-.082031-.183594h-1.902343l-.992188-2.480469-.992188 2.480469h-2.976562l-.992188-2.480469-.992187 2.480469h-2.976563l-2.402343-5.519531zm0 0" fill-opacity=".235294"/></svg>

<?xml version="1.0" encoding="UTF-8"?>
<svg xmlns="http://www.w3.org/2000/svg" xmlns:xlink="http://www.w3.org/1999/xlink" width="24px" height="24px" viewBox="0 0 24 24" version="1.1">
<defs>
<linearGradient id="linear0" gradientUnits="userSpaceOnUse" x1="254" y1="233.5" x2="254" y2="254.666672" gradientTransform="matrix(0.0468795,0,0,0.0468795,-0.0000028613,10.079089)">
<stop offset="0" style="stop-color:rgb(0%,0%,0%);stop-opacity:0.27451;"/>
<stop offset="1" style="stop-color:rgb(0%,0%,0%);stop-opacity:0;"/>
</linearGradient>
<radialGradient id="radial0" gradientUnits="userSpaceOnUse" cx="450.908936" cy="189.579361" fx="450.908936" fy="189.579361" r="21.166656" gradientTransform="matrix(0.000000130628,-0.0585994,-0.105479,-0.0000000761539,39.097986,47.696499)">
<stop offset="0" style="stop-color:rgb(0%,0%,0%);stop-opacity:0.313726;"/>
<stop offset="0.222222" style="stop-color:rgb(0%,0%,0%);stop-opacity:0.27451;"/>
<stop offset="1" style="stop-color:rgb(0%,0%,0%);stop-opacity:0;"/>
</radialGradient>
<radialGradient id="radial1" gradientUnits="userSpaceOnUse" cx="450.908936" cy="189.579361" fx="450.908936" fy="189.579361" r="21.166656" gradientTransform="matrix(-0.000000130628,0.0585994,0.105479,0.0000000761539,-15.28321,-5.645609)">
<stop offset="0" style="stop-color:rgb(0%,0%,0%);stop-opacity:0.313726;"/>
<stop offset="0.222222" style="stop-color:rgb(0%,0%,0%);stop-opacity:0.27451;"/>
<stop offset="1" style="stop-color:rgb(0%,0%,0%);stop-opacity:0;"/>
</radialGradient>
<radialGradient id="radial2" gradientUnits="userSpaceOnUse" cx="450.908936" cy="189.579361" fx="450.908936" fy="189.579361" r="21.166656" gradientTransform="matrix(-0.000000130628,-0.0585994,0.105479,-0.0000000761539,-15.28321,47.696499)">
<stop offset="0" style="stop-color:rgb(0%,0%,0%);stop-opacity:0.313726;"/>
<stop offset="0.222222" style="stop-color:rgb(0%,0%,0%);stop-opacity:0.27451;"/>
<stop offset="1" style="stop-color:rgb(0%,0%,0%);stop-opacity:0;"/>
</radialGradient>
<radialGradient id="radial3" gradientUnits="userSpaceOnUse" cx="450.908936" cy="189.579361" fx="450.908936" fy="189.579361" r="21.166656" gradientTransform="matrix(0.000000130628,0.0585994,-0.105479,0.0000000761539,39.097985,-5.64561)">
<stop offset="0" style="stop-color:rgb(0%,0%,0%);stop-opacity:0.313726;"/>
<stop offset="0.222222" style="stop-color:rgb(0%,0%,0%);stop-opacity:0.27451;"/>
<stop offset="1" style="stop-color:rgb(0%,0%,0%);stop-opacity:0;"/>
</radialGradient>
<linearGradient id="linear1" gradientUnits="userSpaceOnUse" x1="169.333328" y1="233.5" x2="169.333328" y2="-168.666656" gradientTransform="matrix(0.0468795,0,0,0.0468795,0,10.079087)">
<stop offset="0" style="stop-color:rgb(45.882353%,45.882353%,45.882353%);stop-opacity:1;"/>
<stop offset="1" style="stop-color:rgb(61.960787%,61.960787%,61.960787%);stop-opacity:1;"/>
</linearGradient>
<linearGradient id="linear2" gradientUnits="userSpaceOnUse" x1="169.333328" y1="233.5" x2="169.333328" y2="-168.666656" gradientTransform="matrix(0.0394775,0,0,0.0394775,1.880114,10.319036)">
<stop offset="0" style="stop-color:rgb(74.117649%,74.117649%,74.117649%);stop-opacity:1;"/>
<stop offset="1" style="stop-color:rgb(61.960787%,61.960787%,61.960787%);stop-opacity:1;"/>
</linearGradient>
<linearGradient id="linear3" gradientUnits="userSpaceOnUse" x1="254" y1="233.5" x2="254" y2="-147.5" gradientTransform="matrix(0.0468795,0,0,0.0468795,0.24807,8.094534)">
<stop offset="0" style="stop-color:rgb(45.882353%,45.882353%,45.882353%);stop-opacity:1;"/>
<stop offset="1" style="stop-color:rgb(61.960787%,61.960787%,61.960787%);stop-opacity:1;"/>
</linearGradient>
<linearGradient id="linear4" gradientUnits="userSpaceOnUse" x1="254" y1="233.5" x2="254" y2="-147.5" gradientTransform="matrix(0.0468795,0,0,0.0468795,5.209481,8.094534)">
<stop offset="0" style="stop-color:rgb(45.882353%,45.882353%,45.882353%);stop-opacity:1;"/>
<stop offset="1" style="stop-color:rgb(61.960787%,61.960787%,61.960787%);stop-opacity:1;"/>
</linearGradient>
<linearGradient id="linear5" gradientUnits="userSpaceOnUse" x1="158.75" y1="233.5" x2="158.75" y2="-147.5" gradientTransform="matrix(0.0468795,0,0,0.0468795,0.24807,8.094534)">
<stop offset="0" style="stop-color:rgb(95.686275%,26.274511%,21.176471%);stop-opacity:1;"/>
<stop offset="1" style="stop-color:rgb(93.725491%,32.549021%,31.37255%);stop-opacity:1;"/>
</linearGradient>
<linearGradient id="linear6" gradientUnits="userSpaceOnUse" x1="1160" y1="1695.118164" x2="1160" y2="255.118118" gradientTransform="matrix(0.0124035,0,0,0.0124035,0.24807,-1.984554)">
<stop offset="0" style="stop-color:rgb(25.882354%,25.882354%,25.882354%);stop-opacity:1;"/>
<stop offset="1" style="stop-color:rgb(38.039216%,38.039216%,38.039216%);stop-opacity:1;"/>
</linearGradient>
</defs>
<g id="surface1">
<path style=" stroke:none;fill-rule:nonzero;fill:url(#linear0);" d="M 4.464844 20.953125 L 19.347656 20.953125 L 19.347656 22.054688 L 4.464844 22.054688 Z M 4.464844 20.953125 "/>
<path style=" stroke:none;fill-rule:nonzero;fill:url(#radial0);" d="M 19.347656 21.027344 L 21.335938 21.027344 L 21.335938 20.03125 L 19.347656 20.03125 Z M 19.347656 21.027344 "/>
<path style=" stroke:none;fill-rule:nonzero;fill:url(#radial1);" d="M 4.464844 21.027344 L 2.480469 21.027344 L 2.480469 22.019531 L 4.464844 22.019531 Z M 4.464844 21.027344 "/>
<path style=" stroke:none;fill-rule:nonzero;fill:url(#radial2);" d="M 4.464844 21.027344 L 2.480469 21.027344 L 2.480469 20.03125 L 4.464844 20.03125 Z M 4.464844 21.027344 "/>
<path style=" stroke:none;fill-rule:nonzero;fill:url(#radial3);" d="M 19.347656 21.027344 L 21.335938 21.027344 L 21.335938 22.019531 L 19.347656 22.019531 Z M 19.347656 21.027344 "/>
<path style=" stroke:none;fill-rule:nonzero;fill:url(#linear1);" d="M 3.472656 2.171875 L 20.339844 2.171875 C 20.890625 2.171875 21.335938 2.617188 21.335938 3.164062 L 21.335938 20.03125 C 21.335938 20.582031 20.890625 21.027344 20.339844 21.027344 L 3.472656 21.027344 C 2.925781 21.027344 2.480469 20.582031 2.480469 20.03125 L 2.480469 3.164062 C 2.480469 2.617188 2.925781 2.171875 3.472656 2.171875 Z M 3.472656 2.171875 "/>
<path style=" stroke:none;fill-rule:nonzero;fill:rgb(90.196079%,90.196079%,90.196079%);fill-opacity:0.392157;" d="M 3.472656 2.238281 C 2.921875 2.238281 2.480469 2.683594 2.480469 3.230469 L 2.480469 3.355469 C 2.480469 2.804688 2.921875 2.363281 3.472656 2.363281 L 20.339844 2.363281 C 20.890625 2.363281 21.335938 2.804688 21.335938 3.355469 L 21.335938 3.230469 C 21.335938 2.683594 20.890625 2.238281 20.339844 2.238281 Z M 3.472656 2.238281 "/>
<path style=" stroke:none;fill-rule:nonzero;fill:rgb(0%,0%,0%);fill-opacity:0.196078;" d="M 3.472656 21.027344 C 2.921875 21.027344 2.480469 20.582031 2.480469 20.03125 L 2.480469 19.910156 C 2.480469 20.457031 2.921875 20.902344 3.472656 20.902344 L 20.339844 20.902344 C 20.890625 20.902344 21.335938 20.457031 21.335938 19.910156 L 21.335938 20.03125 C 21.335938 20.582031 20.890625 21.027344 20.339844 21.027344 Z M 3.472656 21.027344 "/>
<path style="fill:none;stroke-width:3;stroke-linecap:round;stroke-linejoin:miter;stroke:rgb(12.941177%,12.941177%,12.941177%);stroke-opacity:1;stroke-miterlimit:4;" d="M 74.076259 -168.671091 L 433.875234 -168.671091 C 445.624112 -168.671091 455.123205 -159.171998 455.123205 -147.506445 L 455.123205 212.292529 C 455.123205 224.041407 445.624112 233.5405 433.875234 233.5405 L 74.076259 233.5405 C 62.410707 233.5405 52.911614 224.041407 52.911614 212.292529 L 52.911614 -147.506445 C 52.911614 -159.171998 62.410707 -168.671091 74.076259 -168.671091 Z M 74.076259 -168.671091 " transform="matrix(0.0468795,0,0,0.0468795,0,10.079087)"/>
<path style=" stroke:none;fill-rule:nonzero;fill:url(#linear2);" d="M 4.464844 3.660156 L 19.347656 3.660156 C 19.625 3.660156 19.84375 3.882812 19.84375 4.15625 L 19.84375 19.039062 C 19.84375 19.316406 19.625 19.535156 19.347656 19.535156 L 4.464844 19.535156 C 4.191406 19.535156 3.96875 19.316406 3.96875 19.039062 L 3.96875 4.15625 C 3.96875 3.882812 4.191406 3.660156 4.464844 3.660156 Z M 4.464844 3.660156 "/>
<path style=" stroke:none;fill-rule:nonzero;fill:rgb(100%,100%,100%);fill-opacity:0.392157;" d="M 3.96875 19.039062 L 3.96875 19.289062 C 3.96875 19.5625 4.191406 19.785156 4.464844 19.785156 L 19.347656 19.785156 C 19.625 19.785156 19.84375 19.5625 19.84375 19.289062 L 19.84375 19.039062 C 19.84375 19.316406 19.625 19.535156 19.347656 19.535156 L 4.464844 19.535156 C 4.191406 19.535156 3.96875 19.316406 3.96875 19.039062 Z M 3.96875 19.039062 "/>
<path style=" stroke:none;fill-rule:nonzero;fill:rgb(0%,0%,0%);fill-opacity:0.235294;" d="M 3.96875 4.527344 L 3.96875 4.15625 C 3.96875 3.882812 4.191406 3.660156 4.464844 3.660156 L 19.347656 3.660156 C 19.625 3.660156 19.84375 3.882812 19.84375 4.15625 L 19.84375 4.527344 C 19.84375 4.253906 19.625 4.03125 19.347656 4.03125 L 4.464844 4.03125 C 4.191406 4.03125 3.96875 4.253906 3.96875 4.527344 Z M 3.96875 4.527344 "/>
<path style="fill:none;stroke-width:3;stroke-linecap:round;stroke-linejoin:miter;stroke:rgb(12.941177%,12.941177%,12.941177%);stroke-opacity:1;stroke-miterlimit:4;" d="M 95.240905 -136.924123 L 412.710588 -136.924123 C 418.62669 -136.924123 423.292911 -132.174576 423.292911 -126.3418 L 423.292911 191.127883 C 423.292911 197.043985 418.62669 201.710206 412.710588 201.710206 L 95.240905 201.710206 C 89.408129 201.710206 84.658582 197.043985 84.658582 191.127883 L 84.658582 -126.3418 C 84.658582 -132.174576 89.408129 -136.924123 95.240905 -136.924123 Z M 95.240905 -136.924123 " transform="matrix(0.0468795,0,0,0.0468795,0,10.079087)"/>
<path style=" stroke:none;fill-rule:nonzero;fill:url(#linear3);" d="M 9.179688 14.328125 L 10.171875 14.328125 L 11.164062 11.847656 L 12.15625 14.328125 L 13.148438 14.328125 L 11.164062 9.863281 Z M 9.179688 14.328125 "/>
<path style=" stroke:none;fill-rule:nonzero;fill:url(#linear4);" d="M 14.140625 14.328125 L 15.132812 14.328125 L 16.125 11.847656 L 17.117188 14.328125 L 18.109375 14.328125 L 16.125 9.863281 Z M 14.140625 14.328125 "/>
<path style=" stroke:none;fill-rule:nonzero;fill:url(#linear5);" d="M 4.714844 8.621094 L 5.707031 8.621094 L 7.691406 13.085938 L 9.675781 8.621094 L 10.667969 8.621094 L 8.1875 14.328125 L 7.195312 14.328125 Z M 4.714844 8.621094 "/>
<path style=" stroke:none;fill-rule:nonzero;fill:url(#linear6);" d="M 10.667969 8.621094 L 8.1875 14.328125 L 9.179688 14.328125 L 11.164062 9.863281 L 13.148438 14.328125 L 14.140625 14.328125 L 16.125 9.863281 L 18.109375 14.328125 L 19.101562 14.328125 L 16.621094 8.621094 L 15.628906 8.621094 L 13.644531 13.1875 L 11.660156 8.621094 Z M 10.667969 8.621094 "/>
<path style="fill:none;stroke-width:3;stroke-linecap:butt;stroke-linejoin:miter;stroke:rgb(12.941177%,12.941177%,12.941177%);stroke-opacity:1;stroke-miterlimit:4;" d="M 100.573729 -31.100895 L 121.738375 -31.100895 L 164.067666 64.14001 L 206.396957 -31.100895 L 227.561602 -31.100895 L 174.649988 90.63748 L 153.485343 90.63748 Z M 100.573729 -31.100895 " transform="matrix(0.0468795,0,0,0.0468795,0,10.079087)"/>
<path style=" stroke:none;fill-rule:nonzero;fill:rgb(100%,100%,100%);fill-opacity:0.392157;" d="M 4.714844 8.648438 L 4.792969 8.832031 L 5.707031 8.832031 L 7.691406 13.296875 L 9.675781 8.832031 L 11.660156 8.832031 L 13.644531 13.398438 L 15.628906 8.832031 L 16.621094 8.832031 L 19.019531 14.351562 L 19.101562 14.351562 L 16.621094 8.648438 L 15.628906 8.648438 L 13.644531 13.210938 L 11.660156 8.648438 L 9.675781 8.648438 L 7.691406 13.113281 L 5.707031 8.648438 Z M 4.714844 8.648438 "/>
<path style="fill:none;stroke-width:3;stroke-linecap:butt;stroke-linejoin:miter;stroke:rgb(12.941177%,12.941177%,12.941177%);stroke-opacity:1;stroke-miterlimit:4;" d="M 227.561602 -31.100895 L 174.649988 90.63748 L 195.814634 90.63748 L 238.143925 -4.603425 L 280.473216 90.63748 L 301.637862 90.63748 L 343.967153 -4.603425 L 386.296444 90.63748 L 407.461089 90.63748 L 354.549476 -31.100895 L 333.38483 -31.100895 L 291.055539 66.30647 L 248.726248 -31.100895 Z M 227.561602 -31.100895 " transform="matrix(0.0468795,0,0,0.0468795,0,10.079087)"/>
<path style="fill:none;stroke-width:3;stroke-linecap:butt;stroke-linejoin:miter;stroke:rgb(12.941177%,12.941177%,12.941177%);stroke-opacity:1;stroke-miterlimit:4;" d="M 195.814634 90.63748 L 216.97928 90.63748 L 238.143925 37.725866 L 259.308571 90.63748 L 280.473216 90.63748 L 238.143925 -4.603425 Z M 195.814634 90.63748 " transform="matrix(0.0468795,0,0,0.0468795,0,10.079087)"/>
<path style="fill:none;stroke-width:3;stroke-linecap:butt;stroke-linejoin:miter;stroke:rgb(12.941177%,12.941177%,12.941177%);stroke-opacity:1;stroke-miterlimit:4;" d="M 301.637862 90.63748 L 322.802507 90.63748 L 343.967153 37.725866 L 365.131798 90.63748 L 386.296444 90.63748 L 343.967153 -4.603425 Z M 301.637862 90.63748 " transform="matrix(0.0468795,0,0,0.0468795,0,10.079087)"/>
<path style=" stroke:none;fill-rule:nonzero;fill:rgb(0%,0%,0%);fill-opacity:0.235294;" d="M 4.714844 8.871094 L 7.195312 14.574219 L 10.171875 14.574219 L 11.164062 12.09375 L 12.15625 14.574219 L 15.132812 14.574219 L 16.125 12.09375 L 17.117188 14.574219 L 19.101562 14.574219 L 19.019531 14.390625 L 17.117188 14.390625 L 16.125 11.910156 L 15.132812 14.390625 L 12.15625 14.390625 L 11.164062 11.910156 L 10.171875 14.390625 L 7.195312 14.390625 L 4.792969 8.871094 Z M 4.714844 8.871094 "/>
</g>
</svg>
